X: 42347
T: Weepy Jamie
R: hornpipe
M: 4/4
K: Edorian
|:"Em" E2 E2 E>FG>A|"G" B>AB>d "Em" e2 e>f|"D" d2 d>d A2 F2|"D" d2 d>d A2 F2|
"Em" E2 E2 E>FG>A|"G" B>AB>d "Em" e2 e>f|"C" g>ag>e "D" d>BA>G|"Em" B2 E2 E4:|
|:"Em" e2 e2 e>dB>d|"Em" e>de>f e>dB>c|"D" d2 d>d A2 F2|"D" d2 d>d A2 F2|
"Em" E2 E2 E>FG>A|"G" B>AB>d "Em" e2 e>f|"C" g>ag>f "B7" e>d (3Bdf|"Em" e2 E2 E4:|

